X: 31821
T: Patsy Touhey's
R: reel
M: 4/4
K: Dmajor
BE (3EDE BAFE|D2 (3FED ADFA|BE (3EDE efge|dBAd BE~E2|
BE (3EDE BE (3EDE|D2FA dAFA|BE (3EDE efge|dBAd BE~E2||
e2Be efge|defg afdf|edef gage|dBAd BE~E2|
e2Be efge|defg a2fa|b3a fa2f|edef ge~e2||

